images/icons/Icontime.svg

<svg width="50" height="46" viewBox="0 0 50 46" fill="none" xmlns="http://www.w3.org/2000/svg">
<path d="M20 0.375C14.8223 0.375 10.625 4.57233 10.625 9.75C10.625 14.9277 14.8223 19.125 20 19.125C25.1777 19.125 29.375 14.9277 29.375 9.75C29.375 4.57233 25.1777 0.375 20 0.375Z" fill="#299764"/>
<path d="M10 24.125C4.82233 24.125 0.625 28.3223 0.625 33.5V36.4707C0.625 38.3538 1.98971 39.9594 3.84818 40.2628C9.375 41.1651 14.9585 41.6013 20.5402 41.5712C20.9305 41.5691 21.1665 41.1374 20.9756 40.797C19.5582 38.2694 18.75 35.3541 18.75 32.25C18.75 30.2823 19.0748 28.3904 19.6736 26.6251C19.7861 26.2933 19.5454 25.9406 19.1954 25.9251C17.5658 25.8527 15.9436 25.5602 14.374 25.0476L12.2102 24.3411C11.7717 24.1979 11.3134 24.125 10.8522 24.125H10Z" fill="#299764"/>
<path d="M38.125 28.5C38.125 27.4645 37.2855 26.625 36.25 26.625C35.2145 26.625 34.375 27.4645 34.375 28.5V32.9318C34.375 33.5317 34.662 34.0954 35.1472 34.4482L37.6472 36.2664C38.4847 36.8755 39.6573 36.6903 40.2664 35.8528C40.8755 35.0153 40.6903 33.8427 39.8528 33.2336L38.125 31.977V28.5Z" fill="#299764"/>
<path fill-rule="evenodd" clip-rule="evenodd" d="M36.25 46C43.8439 46 50 39.8439 50 32.25C50 24.6561 43.8439 18.5 36.25 18.5C28.6561 18.5 22.5 24.6561 22.5 32.25C22.5 39.8439 28.6561 46 36.25 46ZM36.25 42.25C41.7728 42.25 46.25 37.7728 46.25 32.25C46.25 26.7272 41.7728 22.25 36.25 22.25C30.7272 22.25 26.25 26.7272 26.25 32.25C26.25 37.7728 30.7272 42.25 36.25 42.25Z" fill="#299764"/>
</svg>

<svg width="50" height="46" fill="none" xmlns="http://www.w3.org/2000/svg"><path d="M20 .375a9.375 9.375 0 1 0 0 18.75 9.375 9.375 0 0 0 0-18.75ZM10 24.125A9.375 9.375 0 0 0 .625 33.5v2.97a3.842 3.842 0 0 0 3.223 3.793A100.24 100.24 0 0 0 20.54 41.57c.39-.002.627-.434.436-.774a17.42 17.42 0 0 1-2.226-8.547c0-1.968.325-3.86.924-5.625a.533.533 0 0 0-.479-.7 18.12 18.12 0 0 1-4.821-.877l-2.164-.707a4.374 4.374 0 0 0-1.358-.216H10ZM38.125 28.5a1.875 1.875 0 0 0-3.75 0v4.432c0 .6.287 1.163.772 1.516l2.5 1.818a1.875 1.875 0 1 0 2.206-3.032l-1.728-1.257V28.5Z" fill="#299764"/><path fill-rule="evenodd" clip-rule="evenodd" d="M36.25 46C43.844 46 50 39.844 50 32.25S43.844 18.5 36.25 18.5 22.5 24.656 22.5 32.25 28.656 46 36.25 46Zm0-3.75c5.523 0 10-4.477 10-10s-4.477-10-10-10-10 4.477-10 10 4.477 10 10 10Z" fill="#299764"/></svg>
